X: 14
T: MacLeod's Reel
T: Miss/Mrs. MacLeod's
O: Trad
Z: John Chambers <jc:trillian.mit.edu>
N: Sometimes called "Uncle Joe" in America.
N: Skye p.8
N: Hunter 249
N: BSFC I-61 and III-45
N: Winston  Scotty  Fitzgerald
D: Celtic 40 Fiddlers 3+2 tape A6
R: reel
M: C|
L: 1/8
K: A
   cB \
| "A"A2a2 "(D)"fefa | "A"~c2cB "(E7)"c2cB \
| "A"A2a2 "F#m"fefa | "Bm"B2BA "E7"B2cB |
| "A"A2a2 "(D)"fefa | "A"~c2cB c2e2 \
| "D"~f2fg fefg | "A"afec "E7"B2 :|
|: cB \
| "A"~A2cA eAcA | c2cB "(E7)"c2cB \
| "A"~A2cA "F#m"eAcA | "Bm"B2BA "E7"B2cB |
| "A"~A2cA eAcf | ecBA c3e \
| "D"~f2fg fefg | "A"afec "E7"B2 :|

%%sep 2 1 500

